X: 22
T:Ymdeithdon John Edwards
T:John Edwards' March
M:C
L:1/8
Q:150
S:Robin Huw Bowen
R:March
A:Wales
Z:brian_martin12345@yahoo.com
K:D
(3ABc|d2d>d dfaf|d2A>AA2dc|B3A GFED|E2E>EE3F|
d3c c<B B<A|a3f f<e e<d|d2cB Agec|d2d>dd2:||
(3Bcd|e3e e<d c<B|g3f f<e e<d|e3d d<c B<A|FEE2EEE2|
e3e e<d c<B|e3f gfed|d2cB Agec|d2d>dd2:||
